X:1
T:Jesus Only Is Our Message
T:James H. Burke
T:Jesus Only Is Our Message
T:Public Domain
T:Public Domain
C:James H. Burke
Z:Public Domain
%%score ( 1 2 ) ( 3 4 )
L:1/8
M:9/8
K:A
V:1 treble 
V:2 treble 
V:3 bass 
V:4 bass 
V:1
 ([CE][B,^D])[CE] | [CA]3 [EA]3 (AG)[EA] | [FB]3 [DF]3 ([FA][EG])[DF] | [CE]3 [EA]3 (AG)[=DA] | %4
w: 1.~Je- * sus|on- ly is * our|sage, Je- sus * all|our theme shall * be;|
w: 2.~Je- * sus|on- ly is * our|ior, All our * guilt|He bore a- * way,|
w: 3.~Je- * sus|is our Sanc- * ti-|er, Cleans- ing * us|from self and * sin,|
w: 4.~Je- * sus|on- ly is * our|er, All our * sick-|ness- es He * bare,|
w: 5.~Je- * sus|on- ly is * our|er, He the * Gift|of Pen- te- * cost,|
w: 6.~And * for|Je- sus we * are|ing, List- ’ning * for|the ad- vent * call;|
 [GB]6 (EF)[DE] | [CA]3 [CA]3 ([CA][DB])[Ec] | [Fd]3 [DF]3 ([FA][EG])[DF] | [CE]3 [EA]3 (GF)[DG] | %8
w: will lift * up|sus ev- er, * Je-|sus on- ly * will|we see. * * *|
w: our right- * eous-|He gives us, * All|our strength from * day|to day. * * *|
w: with all * His|it’s full- ness, * Fill-|ing all our * hearts|with- in. * * *|
w: His ris- * en|and full- ness, * All|His mem- bers * still|may share. * * *|
w: sus, breathe * Thy|up- on us, * Fill|us with the * Ho-|ly Ghost. * * *|
w: ’twill still * be|sus on- ly, * Je-|sus ev- er, * all|in all. * * *|
 [CA]6 ||"^Refrain" ([CA][DB])[Ec] | [Fd]3 [Fd]3 ([Fd][Ec])[DB] | [Ec]3 [Ec]3 (cB)[EA] | %12
w: ||||
w: ||||
w: ||||
w: ||||
w: ||||
w: ||||
 [EB]3- [EB]2 [EB] (Bc)[AB] | [Ge]6 (EF)[DE] | [CA]3- [CA]2 [EA] A[GB][=Gc] | %15
w: |||
w: |||
w: |||
w: |||
w: |||
w: |||
 [Fd]3 [DF]3 [FA][EG][DF] | [CE]3 [EA]3 (GF)[DG] | [CA]3- [CA]2 |] %18
w: |||
w: |||
w: |||
w: |||
w: |||
w: |||
V:2
 x3 | x6 E2 x | x9 | x6 ^D2 x | x6 D2 x | x9 | x9 | x6 E2 x | x6 || x3 | x9 | x6 E2 x | x6 A2 x | %13
w: |mes-||We|Je-|||||||||
w: |Sav-||All|ness|||||||||
w: |fi-||And|Spir-|||||||||
w: |Heal-||And|life|||||||||
w: |Pow-||Je-|pow’r|||||||||
w: |wait-||But|Je-|||||||||
 x6 D2 x | x6 A x2 | x9 | x6 E2 x | x5 |] %18
w: |||||
w: |||||
w: |||||
w: |||||
w: |||||
w: |||||
V:3
 [A,,A,]2 [A,,A,] | [A,,A,]3 [A,,C]3 ([A,,C][B,,B,])[C,A,] | [D,A,]3 [D,A,]3 [D,A,]2 [D,A,] | %3
w: ~ ~|~ ~ ~ * ~|~ ~ ~ ~|
 [A,,A,]3 [C,A,]3 (F,^E,)[B,,F,] | [E,E]6 [E,G,]2 [E,G,] | A,3 A,3 A,2 A, | %6
w: ~ ~ ~ * ~|~ ~ ~|~ ~ ~ ~|
 [D,A,]3 [D,A,]3 [D,A,]2 [D,A,] | [E,A,]3 [E,C]3 (B,A,)[E,B,] | [A,,A,]6 || A,2 A, | %10
w: ~ ~ ~ ~|Je- sus on- * ly,|sus|ev- er,|
 [D,A,]3 [D,A,]3 [D,A,]2 [D,A,] | [A,,A,]3 [A,,A,]3 ([A,,A,][B,,G,])[C,A,] | %12
w: all in all we|sing, Sav- ior, * Sanc-|
 [E,G,]3- [E,G,]2 [G,B,] [B,^D]2 [B,D] | [E,E]6 [E,G,]2 [E,G,] | %14
w: ti- * fi- er, and|Heal- er, Glor-|
 [A,,A,]3- [A,,A,]2 [A,,C] [A,C][A,D][A,E] | [D,D]3 [D,A,]3 [D,A,]2 [D,A,] | %16
w: ious * Lord and com- ing|King. * * *|
 [E,A,]3 [E,C]3 (B,A,)[E,B,] | [A,,A,]3- [A,,A,]2 |] %18
w: ||
V:4
 x3 | x9 | x9 | x6 B,,2 x | x9 | A,3 A,3 A,2 A, | x9 | x6 E,2 x | x6 || A,2 A, | x9 | x9 | x9 | %13
w: |||~||~ ~ ~ ~||Je-||Je- sus||||
 x9 | x9 | x9 | x6 E,2 x | x5 |] %18
w: |||||

